images/link/link-pressed.svg

<svg xmlns="http://www.w3.org/2000/svg" width="504" height="100" viewBox="0 0 504 100">
  <g fill="none" fill-rule="evenodd">
    <path fill="#003EAA" d="M208.634277 54.8134766L203.536621 54.8134766 203.536621 45.4311523 202.218262 45.4311523 202.218262 56 208.634277 56 208.634277 54.8134766zM213.724609 49.0786133C212.464844 49.0786133 211.585938 50.0014648 211.490723 51.4003906L215.841309 51.4003906C215.812012 50.0014648 214.977051 49.0786133 213.724609 49.0786133zM215.804688 53.956543L217.064453 53.956543C216.683594 55.3115234 215.467773 56.1391602 213.739258 56.1391602 211.549316 56.1391602 210.179688 54.5571289 210.179688 52.0595703 210.179688 49.5766602 211.571289 47.965332 213.739258 47.965332 215.870605 47.965332 217.166992 49.4814453 217.166992 51.9350586L217.166992 52.418457 211.490723 52.418457 211.490723 52.4770508C211.556641 54.0371094 212.428223 55.0258789 213.768555 55.0258789 214.786621 55.0258789 215.475098 54.6523438 215.804688 53.956543zM221.576172 55.0332031C222.872559 55.0332031 223.832031 54.1835938 223.832031 53.0556641L223.832031 52.3305664 221.708008 52.4697266C220.506836 52.550293 219.979492 52.9677734 219.979492 53.7587891 219.979492 54.5644531 220.660645 55.0332031 221.576172 55.0332031zM221.341797 56.1391602C219.811035 56.1391602 218.675781 55.230957 218.675781 53.7880859 218.675781 52.3745117 219.71582 51.5615234 221.554199 51.4516602L223.832031 51.3125 223.832031 50.5947266C223.832031 49.6206055 223.224121 49.0859375 222.044922 49.0859375 221.100098 49.0859375 220.440918 49.4448242 220.265137 50.0673828L218.990723 50.0673828C219.15918 48.800293 220.404297 47.965332 222.088867 47.965332 224.015137 47.965332 225.091797 48.9541016 225.091797 50.5947266L225.091797 56 223.890625 56 223.890625 54.8354492 223.773438 54.8354492C223.260742 55.6777344 222.396484 56.1391602 221.341797 56.1391602zM227.420898 56L228.680664 56 228.680664 51.1074219C228.680664 49.9941406 229.552246 49.1884766 230.753418 49.1884766 231.002441 49.1884766 231.456543 49.2324219 231.559082 49.2617188L231.559082 48.0019531C231.397949 47.9799805 231.134277 47.965332 230.929199 47.965332 229.881836 47.965332 228.973633 48.5073242 228.739258 49.2763672L228.62207 49.2763672 228.62207 48.1044922 227.420898 48.1044922 227.420898 56zM233.133789 56L234.393555 56 234.393555 51.3271484C234.393555 49.9428711 235.206543 49.1005859 236.466309 49.1005859 237.726074 49.1005859 238.32666 49.7744141 238.32666 51.1953125L238.32666 56 239.586426 56 239.586426 50.8876953C239.586426 49.0126953 238.597656 47.965332 236.825195 47.965332 235.616699 47.965332 234.847656 48.4780273 234.452148 49.3496094L234.334961 49.3496094 234.334961 48.1044922 233.133789 48.1044922 233.133789 56zM246.119629 56L247.379395 56 247.379395 51.1074219C247.379395 49.9941406 248.177734 49.1005859 249.210449 49.1005859 250.206543 49.1005859 250.858398 49.7011719 250.858398 50.6386719L250.858398 56 252.118164 56 252.118164 50.9243164C252.118164 49.9208984 252.850586 49.1005859 253.949219 49.1005859 255.0625 49.1005859 255.611816 49.671875 255.611816 50.8364258L255.611816 56 256.871582 56 256.871582 50.543457C256.871582 48.8881836 255.970703 47.965332 254.359375 47.965332 253.268066 47.965332 252.367188 48.5146484 251.942383 49.3496094L251.825195 49.3496094C251.458984 48.5292969 250.711914 47.965332 249.642578 47.965332 248.587891 47.965332 247.796875 48.4707031 247.437988 49.3496094L247.320801 49.3496094 247.320801 48.1044922 246.119629 48.1044922 246.119629 56zM262.416016 56.1391602C260.16748 56.1391602 258.775879 54.5864258 258.775879 52.0522461 258.775879 49.5107422 260.16748 47.965332 262.416016 47.965332 264.664551 47.965332 266.056152 49.5107422 266.056152 52.0522461 266.056152 54.5864258 264.664551 56.1391602 262.416016 56.1391602zM262.416016 55.0039062C263.910156 55.0039062 264.752441 53.9199219 264.752441 52.0522461 264.752441 50.1772461 263.910156 49.1005859 262.416016 49.1005859 260.921875 49.1005859 260.07959 50.1772461 260.07959 52.0522461 260.07959 53.9199219 260.921875 55.0039062 262.416016 55.0039062zM268.033691 56L269.293457 56 269.293457 51.1074219C269.293457 49.9941406 270.165039 49.1884766 271.366211 49.1884766 271.615234 49.1884766 272.069336 49.2324219 272.171875 49.2617188L272.171875 48.0019531C272.010742 47.9799805 271.74707 47.965332 271.541992 47.965332 270.494629 47.965332 269.586426 48.5073242 269.352051 49.2763672L269.234863 49.2763672 269.234863 48.1044922 268.033691 48.1044922 268.033691 56zM276.895996 49.0786133C275.63623 49.0786133 274.757324 50.0014648 274.662109 51.4003906L279.012695 51.4003906C278.983398 50.0014648 278.148438 49.0786133 276.895996 49.0786133zM278.976074 53.956543L280.23584 53.956543C279.85498 55.3115234 278.63916 56.1391602 276.910645 56.1391602 274.720703 56.1391602 273.351074 54.5571289 273.351074 52.0595703 273.351074 49.5766602 274.742676 47.965332 276.910645 47.965332 279.041992 47.965332 280.338379 49.4814453 280.338379 51.9350586L280.338379 52.418457 274.662109 52.418457 274.662109 52.4770508C274.728027 54.0371094 275.599609 55.0258789 276.939941 55.0258789 277.958008 55.0258789 278.646484 54.6523438 278.976074 53.956543zM348.217285 51.9130859L348.217285 50.6240234 343.932617 50.6240234 343.932617 51.78125 346.90625 51.78125 346.90625 52.0375977C346.90625 53.824707 345.624512 55.0332031 343.734863 55.0332031 341.61084 55.0332031 340.29248 53.3779297 340.29248 50.7119141 340.29248 48.0825195 341.632812 46.3979492 343.727539 46.3979492 345.294922 46.3979492 346.356934 47.1523438 346.811035 48.5805664L348.151367 48.5805664C347.770508 46.4858398 346.071289 45.1821289 343.727539 45.1821289 340.834473 45.1821289 338.9375 47.3720703 338.9375 50.7119141 338.9375 54.0957031 340.805176 56.2490234 343.727539 56.2490234 346.430176 56.2490234 348.217285 54.5205078 348.217285 51.9130859zM350.414551 56L351.674316 56 351.674316 48.1044922 350.414551 48.1044922 350.414551 56zM351.044434 46.5004883C351.527832 46.5004883 351.92334 46.1049805 351.92334 45.621582 351.92334 45.1381836 351.527832 44.7426758 351.044434 44.7426758 350.561035 44.7426758 350.165527 45.1381836 350.165527 45.621582 350.165527 46.1049805 350.561035 46.5004883 351.044434 46.5004883zM354.604004 46.0610352L354.604004 48.1044922 353.32959 48.1044922 353.32959 49.1591797 354.604004 49.1591797 354.604004 53.9492188C354.604004 55.4580078 355.255859 56.0585938 356.881836 56.0585938 357.130859 56.0585938 357.372559 56.0292969 357.621582 55.9853516L357.621582 54.9233398C357.387207 54.9453125 357.262695 54.9526367 357.035645 54.9526367 356.215332 54.9526367 355.86377 54.5571289 355.86377 53.6269531L355.86377 49.1591797 357.621582 49.1591797 357.621582 48.1044922 355.86377 48.1044922 355.86377 46.0610352 354.604004 46.0610352zM359.599121 56L360.858887 56 360.858887 51.3271484C360.858887 49.9941406 361.635254 49.1005859 363.048828 49.1005859 364.242676 49.1005859 364.872559 49.7963867 364.872559 51.1953125L364.872559 56 366.132324 56 366.132324 50.8876953C366.132324 49.034668 365.077637 47.965332 363.407715 47.965332 362.199219 47.965332 361.371582 48.4780273 360.976074 49.3496094L360.858887 49.3496094 360.858887 44.9697266 359.599121 44.9697266 359.599121 56zM374.818848 48.1044922L373.559082 48.1044922 373.559082 52.7773438C373.559082 54.1616211 372.797363 54.9892578 371.405762 54.9892578 370.145996 54.9892578 369.618652 54.3300781 369.618652 52.9091797L369.618652 48.1044922 368.358887 48.1044922 368.358887 53.2167969C368.358887 55.0844727 369.281738 56.1391602 371.054199 56.1391602 372.262695 56.1391602 373.10498 55.6411133 373.500488 54.762207L373.617676 54.762207 373.617676 56 374.818848 56 374.818848 48.1044922zM381.117676 56.1391602C380.019043 56.1391602 379.081543 55.6191406 378.583496 54.7402344L378.466309 54.7402344 378.466309 56 377.265137 56 377.265137 44.9697266 378.524902 44.9697266 378.524902 49.3496094 378.64209 49.3496094C379.074219 48.5 380.033691 47.965332 381.117676 47.965332 383.124512 47.965332 384.428223 49.5693359 384.428223 52.0522461 384.428223 54.5205078 383.117188 56.1391602 381.117676 56.1391602zM380.824707 49.1005859C379.38916 49.1005859 378.495605 50.2285156 378.495605 52.0522461 378.495605 53.8759766 379.38916 55.0039062 380.824707 55.0039062 382.267578 55.0039062 383.124512 53.8979492 383.124512 52.0522461 383.124512 50.206543 382.267578 49.1005859 380.824707 49.1005859z"/>
    <path fill="#003EAA" fill-rule="nonzero" d="M404.923135,43.6169148 C404.768961,43.2439241 404.405354,43.0004692 404.001756,43 L399.010535,43 C398.45922,43 398.012291,43.4469291 398.012291,43.9982441 C398.012291,44.5495591 398.45922,44.9964882 399.010535,44.9964882 L401.591995,44.9964882 L398.304777,48.283706 C398.045277,48.5343396 397.941204,48.9054901 398.032559,49.2545057 C398.123913,49.6035212 398.396479,49.8760867 398.745494,49.9674414 C399.09451,50.0587962 399.46566,49.9547232 399.716294,49.6952231 L403.003512,46.4080053 L403.003512,48.9894645 C403.003512,49.5407795 403.450441,49.9877086 404.001756,49.9877086 C404.553071,49.9877086 405,49.5407795 405,48.9894645 L405,43.9982441 C404.999632,43.8673237 404.973515,43.7377543 404.923135,43.6169148 L404.923135,43.6169148 Z"/>
    <path fill="#003EAA" fill-rule="nonzero" d="M404,52 C403.447715,52 403,52.4477153 403,53 L403,55 L393,55 L393,45 L395,45 C395.552285,45 396,44.5522847 396,44 C396,43.4477153 395.552285,43 395,43 L392,43 C391.447715,43 391,43.4477153 391,44 L391,56 C391,56.5522847 391.447715,57 392,57 L404,57 C404.552285,57 405,56.5522847 405,56 L405,53 C405,52.4477153 404.552285,52 404,52 Z"/>
    <rect width="58" height="22" x="66" y="40" fill="#0A84FF" rx="2"/>
    <polygon fill="#0A84FF" points="120 51 124 47 128 51 124 55"/>
    <path fill="#FFF" d="M76.568,49.324 C76.568,51.256 75.236,52.048 73.34,52.048 L72.344,52.048 L72.344,55 L70.94,55 L70.94,46.72 L73.244,46.72 C75.332,46.72 76.568,47.56 76.568,49.324 Z M75.104,49.324 C75.104,48.196 74.408,47.764 73.34,47.764 L72.344,47.764 L72.344,50.98 L73.352,50.98 C74.396,50.98 75.104,50.572 75.104,49.324 Z M78.044,55 L82.52,55 L82.52,54.016 L80.804,54.016 L80.804,51.448 C81.008,50.572 81.596,49.816 82.412,49.816 C82.7,49.816 82.892,49.852 83.144,49.924 L83.384,48.604 C83.096,48.532 82.88,48.508 82.568,48.508 C81.8,48.508 81.116,48.988 80.78,49.864 L80.636,48.664 L78.044,48.664 L78.044,49.648 L79.448,49.648 L79.448,54.016 L78.044,54.016 L78.044,55 Z M90.584,52.264 L86.384,52.264 C86.468,53.56 87.2,54.112 88.112,54.112 C88.688,54.112 89.252,53.956 89.768,53.524 L90.356,54.364 C89.768,54.856 88.94,55.156 88.052,55.156 C86.072,55.156 84.992,53.812 84.992,51.832 C84.992,49.936 86.084,48.496 87.848,48.496 C89.564,48.496 90.62,49.696 90.62,51.664 C90.62,51.88 90.608,52.108 90.584,52.264 Z M87.872,49.492 C87.056,49.492 86.468,50.08 86.384,51.34 L89.312,51.34 C89.288,50.152 88.796,49.492 87.872,49.492 Z M94.772,54.124 C94.028,54.124 93.38,53.848 92.888,53.452 L92.168,54.268 C92.744,54.772 93.596,55.156 94.772,55.156 C96.236,55.156 97.568,54.568 97.568,53.188 C97.568,51.988 96.764,51.556 95.528,51.22 C94.256,50.872 93.92,50.692 93.92,50.212 C93.92,49.792 94.256,49.516 95.108,49.516 C95.852,49.516 96.416,49.756 96.92,50.08 L97.484,49.228 C96.92,48.808 96.14,48.496 95.072,48.496 C93.512,48.496 92.54,49.228 92.54,50.32 C92.54,51.424 93.368,51.868 94.628,52.192 C95.936,52.528 96.14,52.768 96.14,53.284 C96.14,53.812 95.612,54.124 94.772,54.124 Z M101.972,54.124 C101.228,54.124 100.58,53.848 100.088,53.452 L99.368,54.268 C99.944,54.772 100.796,55.156 101.972,55.156 C103.436,55.156 104.768,54.568 104.768,53.188 C104.768,51.988 103.964,51.556 102.728,51.22 C101.456,50.872 101.12,50.692 101.12,50.212 C101.12,49.792 101.456,49.516 102.308,49.516 C103.052,49.516 103.616,49.756 104.12,50.08 L104.684,49.228 C104.12,48.808 103.34,48.496 102.272,48.496 C100.712,48.496 99.74,49.228 99.74,50.32 C99.74,51.424 100.568,51.868 101.828,52.192 C103.136,52.528 103.34,52.768 103.34,53.284 C103.34,53.812 102.812,54.124 101.972,54.124 Z M112.184,52.264 L107.984,52.264 C108.068,53.56 108.8,54.112 109.712,54.112 C110.288,54.112 110.852,53.956 111.368,53.524 L111.956,54.364 C111.368,54.856 110.54,55.156 109.652,55.156 C107.672,55.156 106.592,53.812 106.592,51.832 C106.592,49.936 107.684,48.496 109.448,48.496 C111.164,48.496 112.22,49.696 112.22,51.664 C112.22,51.88 112.208,52.108 112.184,52.264 Z M109.472,49.492 C108.656,49.492 108.068,50.08 107.984,51.34 L110.912,51.34 C110.888,50.152 110.396,49.492 109.472,49.492 Z M119.132,46.12 L119.132,55 L117.944,55 L117.848,54.22 C117.428,54.82 116.816,55.156 116.072,55.156 C114.44,55.156 113.684,53.824 113.684,51.832 C113.684,49.9 114.62,48.496 116.192,48.496 C116.852,48.496 117.38,48.736 117.788,49.18 L117.788,45.964 L119.132,46.12 Z M116.54,49.528 C115.64,49.528 115.112,50.248 115.112,51.832 C115.112,53.452 115.592,54.124 116.432,54.124 C117.032,54.124 117.464,53.728 117.788,53.224 L117.788,50.236 C117.476,49.792 117.056,49.528 116.54,49.528 Z"/>
  </g>
</svg>

<svg xmlns="http://www.w3.org/2000/svg" style="background:#f9f9fa" viewBox="0 0 504 100"><g fill="none" fill-rule="evenodd"><path fill="#003EAA" d="M208.63 54.81h-5.1v-9.38h-1.31V56h6.41v-1.19zm5.1-5.73c-1.27 0-2.14.92-2.24 2.32h4.35c-.03-1.4-.86-2.32-2.12-2.32zm2.07 4.88h1.26c-.38 1.35-1.6 2.18-3.32 2.18-2.2 0-3.56-1.58-3.56-4.08 0-2.48 1.4-4.1 3.56-4.1 2.13 0 3.43 1.52 3.43 3.98v.48h-5.68v.06c.07 1.56.94 2.55 2.28 2.55 1.02 0 1.7-.38 2.03-1.07zm5.78 1.07c1.3 0 2.25-.85 2.25-1.97v-.73l-2.12.14c-1.2.08-1.73.5-1.73 1.29 0 .8.68 1.27 1.6 1.27zm-.24 1.1c-1.53 0-2.66-.9-2.66-2.34 0-1.42 1.04-2.23 2.87-2.34l2.28-.14v-.72c0-.97-.6-1.5-1.79-1.5-.94 0-1.6.35-1.77.98h-1.28c.17-1.27 1.41-2.1 3.1-2.1 1.93 0 3 .98 3 2.62V56h-1.2v-1.16h-.12a2.73 2.73 0 0 1-2.43 1.3zm6.08-.13h1.26v-4.9c0-1.1.87-1.91 2.07-1.91.25 0 .7.04.8.07V48a5.41 5.41 0 0 0-.62-.03c-1.05 0-1.96.54-2.2 1.3h-.1V48.1h-1.2V56zm5.71 0h1.26v-4.67c0-1.39.82-2.23 2.08-2.23 1.26 0 1.86.67 1.86 2.1V56h1.26v-5.11c0-1.88-1-2.92-2.76-2.92-1.21 0-1.98.5-2.38 1.38h-.12V48.1h-1.2V56zm12.99 0h1.26v-4.9c0-1.1.8-2 1.83-2 1 0 1.65.6 1.65 1.54V56h1.26v-5.08c0-1 .73-1.82 1.83-1.82 1.11 0 1.66.57 1.66 1.74V56h1.26v-5.46c0-1.65-.9-2.57-2.51-2.57-1.1 0-2 .54-2.42 1.38h-.11a2.28 2.28 0 0 0-2.19-1.38c-1.05 0-1.84.5-2.2 1.38h-.12V48.1h-1.2V56zm16.3.14c-2.25 0-3.64-1.55-3.64-4.09s1.39-4.08 3.64-4.08c2.24 0 3.64 1.54 3.64 4.08s-1.4 4.09-3.64 4.09zm0-1.14c1.49 0 2.33-1.08 2.33-2.95s-.84-2.95-2.33-2.95c-1.5 0-2.34 1.08-2.34 2.95s.84 2.95 2.34 2.95zm5.61 1h1.26v-4.9c0-1.1.88-1.91 2.08-1.91.25 0 .7.04.8.07V48a5.41 5.41 0 0 0-.63-.03c-1.05 0-1.95.54-2.19 1.3h-.12V48.1h-1.2V56zm8.87-6.92c-1.26 0-2.14.92-2.24 2.32h4.35c-.03-1.4-.86-2.32-2.11-2.32zm2.08 4.88h1.26c-.39 1.35-1.6 2.18-3.33 2.18-2.19 0-3.56-1.58-3.56-4.08 0-2.48 1.4-4.1 3.56-4.1 2.13 0 3.43 1.52 3.43 3.98v.48h-5.68v.06c.07 1.56.94 2.55 2.28 2.55 1.02 0 1.7-.38 2.04-1.07zm69.24-2.05v-1.29h-4.29v1.16h2.98v.26c0 1.78-1.29 3-3.18 3-2.12 0-3.44-1.66-3.44-4.33 0-2.63 1.34-4.31 3.44-4.31 1.56 0 2.63.75 3.08 2.18h1.34c-.38-2.1-2.08-3.4-4.42-3.4-2.9 0-4.8 2.2-4.8 5.53 0 3.39 1.88 5.54 4.8 5.54 2.7 0 4.49-1.73 4.49-4.34zm2.2 4.09h1.25v-7.9h-1.26V56zm.62-9.5a.88.88 0 0 0 0-1.76.88.88 0 0 0 0 1.76zm3.56-.44v2.04h-1.27v1.06h1.27v4.79c0 1.5.66 2.1 2.28 2.1.25 0 .5-.02.74-.06v-1.07c-.23.03-.36.03-.58.03-.82 0-1.18-.4-1.18-1.32v-4.47h1.76V48.1h-1.76v-2.04h-1.26zm5 9.94h1.26v-4.67c0-1.34.78-2.23 2.19-2.23 1.2 0 1.82.7 1.82 2.1V56h1.26v-5.11c0-1.86-1.05-2.92-2.72-2.92-1.21 0-2.04.5-2.43 1.38h-.12v-4.38h-1.26V56zm15.22-7.9h-1.26v4.68c0 1.38-.76 2.2-2.15 2.2-1.26 0-1.8-.65-1.8-2.07v-4.8h-1.25v5.1c0 1.87.92 2.93 2.7 2.93 1.2 0 2.04-.5 2.44-1.38h.12V56h1.2v-7.9zm6.3 8.04c-1.1 0-2.04-.52-2.54-1.4h-.11V56h-1.2V44.97h1.25v4.38h.12a2.73 2.73 0 0 1 2.48-1.38c2 0 3.3 1.6 3.3 4.08 0 2.47-1.3 4.09-3.3 4.09zm-.3-7.04c-1.43 0-2.32 1.13-2.32 2.95 0 1.83.89 2.95 2.32 2.95 1.45 0 2.3-1.1 2.3-2.95 0-1.84-.85-2.95-2.3-2.95z"/><g transform="translate(391 44)"><path fill="#003EAA" fill-rule="nonzero" d="M4 0H3a3 3 0 0 0-3 3v8a3 3 0 0 0 3 3h8a3 3 0 0 0 3-3v-1a1 1 0 0 0-2 0v1a1 1 0 0 1-1 1H3a1 1 0 0 1-1-1V3a1 1 0 0 1 1-1h1a1 1 0 1 0 0-2z"/><path fill="#003EAA" fill-rule="nonzero" d="M13.01 0h-5a1 1 0 1 0 0 2h2.59L7.3 5.3a1 1 0 1 0 1.42 1.4l3.3-3.29V6a1 1 0 1 0 2 0V1a1 1 0 0 0-1-1z"/></g><g transform="translate(66 40)"><rect width="58" height="22" fill="#0A84FF" rx="2"/><polygon fill="#0A84FF" points="54 11 58 7 62 11 58 15"/><path fill="#FFFFFF" d="M9.7 9.38c-.57.45-1.36.67-2.36.67h-1V13H4.94V4.72h2.3c1.06 0 1.88.22 2.45.65.58.44.87 1.09.87 1.95 0 .93-.29 1.62-.87 2.06zM7.34 5.76h-1V9h1.01c.56 0 1-.13 1.3-.38.31-.26.47-.69.47-1.29 0-1.04-.6-1.56-1.78-1.56zm10.18.9L17.29 9h-.96V7.7c-.44.02-.82.2-1.15.54-.32.34-.58.82-.77 1.45v2.35h1.27V13h-3.55v-.96h.93V7.62h-.93v-.96h1.95l.24 1.47c.25-.55.55-.95.91-1.22s.8-.4 1.33-.4c.32 0 .64.05.96.15zm3.4 4.99c.31.3.71.46 1.2.46.29 0 .57-.04.84-.14.27-.09.54-.23.82-.41l.58.82c-.3.24-.65.44-1.05.57-.4.14-.82.2-1.26.2-.97 0-1.72-.3-2.25-.9a3.5 3.5 0 0 1-.8-2.42c0-.63.1-1.2.34-1.7.23-.52.57-.91 1-1.2.45-.29.96-.43 1.54-.43.84 0 1.51.28 2 .84.5.57.74 1.34.74 2.32 0 .24-.01.44-.04.6h-4.2c.04.62.22 1.08.54 1.39zm-.08-3.69a2.3 2.3 0 0 0-.47 1.4h2.94a2.38 2.38 0 0 0-.38-1.39 1.21 1.21 0 0 0-1.03-.48c-.44 0-.79.16-1.06.47zm8.93 3.95a.7.7 0 0 0 .37-.63.84.84 0 0 0-.1-.45.98.98 0 0 0-.44-.32c-.22-.1-.54-.2-.97-.32a4.2 4.2 0 0 1-1.57-.68 1.43 1.43 0 0 1-.52-1.19c0-.55.23-1 .68-1.33.46-.33 1.08-.5 1.85-.5a4 4 0 0 1 2.41.74l-.57.85a3.2 3.2 0 0 0-1.8-.56c-.8 0-1.2.23-1.2.7 0 .15.04.28.14.39.09.1.25.2.47.3.22.08.56.19 1 .31.68.2 1.2.43 1.54.7.34.29.5.7.5 1.27 0 .65-.26 1.14-.8 1.47-.53.33-1.2.5-1.99.5-1.05 0-1.91-.3-2.6-.9l.7-.8c.27.2.56.37.89.49.32.12.66.19 1.01.19.43 0 .76-.08 1-.23zm7.2 0a.7.7 0 0 0 .37-.63.84.84 0 0 0-.1-.45.98.98 0 0 0-.44-.32c-.22-.1-.54-.2-.97-.32a4.2 4.2 0 0 1-1.57-.68 1.43 1.43 0 0 1-.52-1.19c0-.55.23-1 .68-1.33.46-.33 1.08-.5 1.85-.5a4 4 0 0 1 2.41.74l-.57.85a3.2 3.2 0 0 0-1.8-.56c-.8 0-1.2.23-1.2.7 0 .15.04.28.14.39.09.1.25.2.47.3.22.08.56.19 1 .31.68.2 1.2.43 1.54.7.34.29.5.7.5 1.27 0 .65-.26 1.14-.8 1.47-.53.33-1.2.5-1.99.5-1.05 0-1.91-.3-2.6-.9l.7-.8c.27.2.56.37.89.49.32.12.66.19 1.01.19.43 0 .76-.08 1-.23zm5.55-.26c.31.3.71.46 1.2.46.29 0 .57-.04.84-.14.27-.09.54-.23.82-.41l.58.82c-.3.24-.65.44-1.05.57-.4.14-.82.2-1.26.2-.97 0-1.72-.3-2.25-.9a3.5 3.5 0 0 1-.8-2.42c0-.63.1-1.2.34-1.7.23-.52.57-.91 1-1.2.45-.29.96-.43 1.54-.43.84 0 1.51.28 2 .84.5.57.74 1.34.74 2.32 0 .24-.01.44-.04.6h-4.2c.04.62.22 1.08.54 1.39zm-.08-3.69a2.3 2.3 0 0 0-.47 1.4h2.94a2.38 2.38 0 0 0-.38-1.39 1.21 1.21 0 0 0-1.03-.48c-.44 0-.79.16-1.06.47zm10.7-3.84V13h-1.2l-.1-.78a2.12 2.12 0 0 1-1.77.94c-.79 0-1.39-.3-1.79-.9-.4-.58-.6-1.4-.6-2.43 0-.65.1-1.22.31-1.73.2-.5.5-.9.87-1.18.38-.28.82-.42 1.33-.42.65 0 1.18.23 1.6.7V3.95l1.34.16zM49.47 8.1c-.25.38-.37.96-.37 1.73 0 1.54.44 2.3 1.32 2.3.53 0 .98-.3 1.36-.9v-3c-.33-.47-.75-.7-1.25-.7-.46 0-.82.19-1.06.57z"/></g></g></svg>
